Newaita-dark/actions/16/mail-replied.svg

<?xml version="1.0" encoding="UTF-8"?>
<svg xmlns="http://www.w3.org/2000/svg" xmlns:xlink="http://www.w3.org/1999/xlink" width="16pt" height="16pt" viewBox="0 0 16 16" version="1.1">
<g id="surface1">
<path style=" stroke:none;fill-rule:nonzero;fill:rgb(74.117649%,74.117649%,74.117649%);fill-opacity:1;" d="M 13.890625 2.109375 C 14.625 2.109375 15.214844 2.699219 15.214844 3.433594 L 15.214844 13.023438 C 15.214844 13.757812 14.625 14.347656 13.890625 14.347656 L 6.285156 14.347656 L 6.285156 13.355469 L 13.5625 13.355469 C 13.925781 13.355469 14.222656 13.058594 14.222656 12.695312 L 14.222656 3.867188 L 8.320312 9.152344 C 8.101562 9.34375 7.773438 9.34375 7.558594 9.152344 L 1.652344 3.867188 L 1.652344 8.726562 L 0.660156 8.726562 L 0.660156 3.433594 C 0.660156 2.699219 1.25 2.109375 1.984375 2.109375 Z M 13.367188 3.101562 L 2.511719 3.101562 L 7.9375 7.957031 Z M 13.367188 3.101562 "/>
<path style=" stroke:none;fill-rule:evenodd;fill:rgb(100%,65.490198%,14.901961%);fill-opacity:1;" d="M 4.09375 9.550781 C 4.390625 9.558594 4.628906 9.800781 4.628906 10.101562 L 4.628906 11.257812 L 6.726562 11.257812 C 7.003906 11.257812 7.222656 11.480469 7.222656 11.753906 C 7.222656 12.03125 7.003906 12.25 6.726562 12.25 L 4.628906 12.25 L 4.628906 13.410156 C 4.628906 13.832031 4.167969 14.097656 3.804688 13.882812 L 0.992188 12.226562 C 0.628906 12.015625 0.628906 11.492188 0.992188 11.28125 L 3.804688 9.628906 C 3.882812 9.582031 3.972656 9.554688 4.0625 9.550781 C 4.074219 9.550781 4.082031 9.550781 4.09375 9.550781 Z M 4.09375 9.550781 "/>
<path style=" stroke:none;fill-rule:evenodd;fill:rgb(74.117649%,74.117649%,74.117649%);fill-opacity:1;" d="M 2.316406 3.101562 L 13.5625 3.101562 L 7.9375 8.0625 Z M 2.316406 3.101562 "/>
</g>
</svg>

<svg xmlns="http://www.w3.org/2000/svg" width="16pt" height="16pt" viewBox="0 0 16 16"><path d="M13.89 2.11c.735 0 1.325.59 1.325 1.324v9.59a1.32 1.32 0 0 1-1.324 1.324H6.285v-.993h7.277c.364 0 .66-.296.66-.66V3.867L8.32 9.152a.577.577 0 0 1-.761 0L1.652 3.867v4.86H.66V3.434c0-.735.59-1.325 1.324-1.325zm-.523.992H2.512l5.425 4.855zm0 0" fill="#bdbdbd"/><path d="M4.094 9.55a.55.55 0 0 1 .535.552v1.156h2.098c.277 0 .496.222.496.496a.492.492 0 0 1-.496.496H4.629v1.16c0 .422-.461.688-.824.473L.992 12.227a.546.546 0 0 1 0-.946L3.805 9.63a.552.552 0 0 1 .257-.078h.032zm0 0" fill-rule="evenodd" fill="#ffa726"/><path d="M2.316 3.102h11.246l-5.624 4.96zm0 0" fill-rule="evenodd" fill="#bdbdbd"/></svg>
